svg-icons/octicons/squirrel.svg

<svg xmlns="http://www.w3.org/2000/svg" viewBox="0 0 16 16"><path d="M12 1C9.79 1 8 2.31 8 3.92c0 1.94.5 3.03 0 6.08 0-4.5-2.77-6.34-4-6.34.05-.5-.48-.66-.48-.66s-.22.11-.3.34c-.27-.31-.56-.27-.56-.27l-.13.58S.7 4.29.68 6.87c.2.33 1.53.6 2.47.43.89.05.67.79.47.99C2.78 9.13 2 8 1 8S0 9 1 9s1 1 3 1c-3.09 1.2 0 4 0 4H3c-1 0-1 1-1 1h6c3 0 5-1 5-3.47 0-.85-.43-1.79-1-2.53-1.11-1.46.23-2.68 1-2 .77.68 3 1 3-2 0-2.21-1.79-4-4-4zM2.5 6c-.28 0-.5-.22-.5-.5s.22-.5.5-.5.5.22.5.5-.22.5-.5.5z"/></svg>

<svg viewBox="0 0 16 16" xmlns="http://www.w3.org/2000/svg">
  <path d="M12 1c-2.21 0-4 1.31-4 2.92C8 5.86 8.5 6.95 8 10c0-4.5-2.77-6.34-4-6.34 0.05-0.5-0.48-0.66-0.48-0.66s-0.22 0.11-0.3 0.34c-0.27-0.31-0.56-0.27-0.56-0.27l-0.13 0.58c0 0-1.83 0.64-1.85 3.22C0.88 7.2 2.21 7.47 3.15 7.3c0.89 0.05 0.67 0.79 0.47 0.99C2.78 9.13 2 8 1 8s-1 1 0 1 1 1 3 1c-3.09 1.2 0 4 0 4h-1c-1 0-1 1-1 1s4 0 6 0c3 0 5-1 5-3.47 0-0.85-0.43-1.79-1-2.53C10.89 7.54 12.23 6.32 13 7s3 1 3-2C16 2.79 14.21 1 12 1zM2.5 6c-0.28 0-0.5-0.22-0.5-0.5 0-0.28 0.22-0.5 0.5-0.5 0.28 0 0.5 0.22 0.5 0.5C3 5.78 2.78 6 2.5 6z" />
</svg>
